public/static/img/assets/transfer_in.svg

<svg width="40" height="40" viewBox="0 0 40 40" fill="none" xmlns="http://www.w3.org/2000/svg">
<rect width="40" height="40" rx="16" fill="#00A609"/>
<path d="M17.333 30.0885L11.4286 21.582C10.9881 20.9473 11.2597 20.428 12.0324 20.428L12.2544 20.428L13.1977 20.428L14.3262 20.428L14.7673 20.428C14.8193 20.428 14.8713 20.4282 14.9233 20.428C15.0494 20.4275 15.0583 20.3524 15.0583 20.2395L15.0583 18.7317C15.0583 18.7317 14.6846 12.0967 21.0393 10.2453C21.0393 10.2453 24.0583 9.09938 28.8209 9.86607C28.8007 9.86281 28.7719 9.87214 28.7521 9.87493C28.6862 9.88432 28.6205 9.89503 28.5551 9.90706C28.4518 9.92581 28.3489 9.94721 28.2465 9.97058C28.1111 10.0015 27.9765 10.0359 27.8428 10.0736C27.6806 10.1192 27.5198 10.1694 27.3605 10.2241C27.1769 10.2871 26.9953 10.3559 26.8161 10.4304C26.6163 10.5134 26.4195 10.6034 26.2261 10.7004C26.0153 10.8061 25.8087 10.9202 25.607 11.0424C25.3903 11.1736 25.1795 11.3144 24.9753 11.4643C24.7579 11.624 24.5484 11.7943 24.3476 11.9744C24.1345 12.1656 23.9318 12.368 23.7403 12.5807C23.5369 12.8066 23.3465 13.0439 23.1699 13.2913C22.9816 13.5553 22.809 13.8302 22.653 14.1144C22.4852 14.4196 22.3364 14.7351 22.206 15.058C22.0647 15.4078 21.9451 15.7663 21.8455 16.1302C21.7366 16.5278 21.6517 16.9319 21.5879 17.3391C21.5177 17.7875 21.473 18.2397 21.4498 18.693C21.4243 19.1948 21.4251 19.6978 21.4477 20.1997C21.4526 20.307 21.458 20.4185 21.5912 20.4278C21.6532 20.4321 21.7169 20.428 21.7791 20.428L22.2647 20.428L23.4363 20.428L24.2359 20.428C25.0085 20.428 25.2802 20.9473 24.8396 21.582L18.9352 30.0885C18.4947 30.7231 17.7738 30.7231 17.3332 30.0885L17.333 30.0885Z" fill="#171717"/>
</svg>

<svg width="40" height="40" fill="none" xmlns="http://www.w3.org/2000/svg"><rect width="40" height="40" rx="16" fill="#00A609"/><path d="m17.333 30.088-5.904-8.506c-.44-.635-.17-1.154.603-1.154h2.891c.126 0 .135-.076.135-.189v-1.507s-.373-6.635 5.981-8.487c0 0 3.02-1.146 7.782-.379-.02-.003-.05.006-.069.009a7.031 7.031 0 0 0-.91.199 8.91 8.91 0 0 0-1.026.356 9.12 9.12 0 0 0-1.209.612 8.556 8.556 0 0 0-1.26.932 8.06 8.06 0 0 0-1.694 2.14 8.79 8.79 0 0 0-.447.944c-.141.35-.26.708-.36 1.072-.11.398-.194.802-.258 1.21-.07.448-.115.9-.138 1.353a15.741 15.741 0 0 0-.002 1.507c.005.107.01.219.143.228.062.004.126 0 .188 0h2.457c.773 0 1.044.52.604 1.154l-5.905 8.506c-.44.635-1.161.635-1.602 0Z" fill="#171717"/></svg>
